X: 1
T:Ai, Rosiña
M:6/8
L:1/8
Q:200
C:Trad
R:Muiñeira
B:Os Segredos da Gaita. FOXO
K:C
G>AB |: c>Bc E2F | G>AG C2 D | E>FE D>CD | E2C G>AB |
c>Bc E2F | G>AG C2D | E>FE D>ED |1 C3 G>AB :|2 C3 E>EE |
|: E2B, F>GF | E3 F>GF | E>_E=E F>GF | E3 G>GG | G2D A>BA | G3 A>BA| G>F
G A>BA |
G3 G>AG | G>FD F>GF | F2 E E>FE | E>DC D>EF | G3 G>AG |
G>FD F>GF | F2E c>BA | G>FE F>ED |1 C3 E>EE :|2 C3 c3 |
c3 c3 | c3C3 | C3 C3 | C3 C>AG |: F2E F>GA | D2C F>GA |
A>GF G>A_B | _B>AF C>AG | F2E F>GA | D2C C>DE | E>DC D>CB, |1
C3 C>AG :|2 C3 F>GA  |: F>GA F>AF | A2G E>FG | E>FG E>GE |
G2F F>GA | F>GA F>AF | A2G E>FG | 

